src/icons/jogging.svg

<svg width="24" height="24" viewBox="0 0 24 24" xmlns="http://www.w3.org/2000/svg">
  <path fill-rule="evenodd" clip-rule="evenodd" d="M11.9991 0.999878L15.4045 4.40529L14.1795 5.6303L12.8653 4.31611V8.16493H11.1329V4.31611L9.88895 5.56007L8.66394 4.33506L11.9991 0.999878ZM11.1329 15.6649H12.8653V19.684L14.1795 18.3699L15.4045 19.5949L11.9991 23.0003L8.59371 19.5949L9.81872 18.3699L11.1329 19.684V15.6649ZM4.31583 11.1337H8.16412V12.8662H4.31583L5.63003 14.1803L4.40502 15.4054L0.999603 11.9999L4.40502 8.59452L5.63003 9.81953L4.31583 11.1337ZM19.6838 12.8662H15.6641V11.1337H19.6838L18.3696 9.81953L19.5946 8.59452L23 11.9999L19.5946 15.4054L18.3696 14.1803L19.6838 12.8662Z" fill="currentColor"/>
</svg>

<svg xmlns="http://www.w3.org/2000/svg" width="24" height="24"><path fill="currentColor" fill-rule="evenodd" d="m12 1 3.405 3.405L14.18 5.63l-1.315-1.314v3.849h-1.732V4.316L9.889 5.56 8.664 4.335zm-.867 14.665h1.732v4.019l1.315-1.314 1.225 1.225L11.999 23l-3.405-3.405 1.225-1.225 1.314 1.314zm-6.817-4.531h3.848v1.732H4.316L5.63 14.18l-1.225 1.225L1 12l3.405-3.405L5.63 9.82zm15.368 1.732h-4.02v-1.732h4.02L18.37 9.82l1.225-1.225L23 12l-3.405 3.405-1.225-1.225z" clip-rule="evenodd"/></svg>
